icons/laravel-logo.svg

<svg xmlns="http://www.w3.org/2000/svg" width="256" height="256" fill="none" viewBox="0 0 256 256"><rect width="256" height="256" fill="#F4F2ED" rx="60"/><path fill="#FF2D20" fill-rule="evenodd" d="M215.846 78.3138C215.91 78.5572 215.944 78.8083 215.944 79.0605V118.26C215.944 118.763 215.813 119.257 215.565 119.692C215.316 120.128 214.958 120.489 214.528 120.739L182.082 139.681V177.226C182.082 178.248 181.547 179.191 180.673 179.706L112.945 219.241C112.79 219.33 112.621 219.387 112.452 219.448C112.388 219.47 112.329 219.509 112.262 219.527C111.788 219.653 111.291 219.653 110.817 219.527C110.74 219.505 110.669 219.462 110.595 219.434C110.44 219.377 110.278 219.327 110.13 219.241L42.4164 179.706C41.9862 179.455 41.6288 179.094 41.3801 178.659C41.1314 178.224 41.0003 177.729 41 177.226V59.6288C41 59.3715 41.0352 59.1214 41.0986 58.8785C41.1198 58.7963 41.1691 58.7213 41.1973 58.6391C41.2501 58.4891 41.2995 58.3355 41.377 58.1961C41.4298 58.1032 41.5073 58.0282 41.5708 57.9425C41.6518 57.8281 41.7258 57.7102 41.8209 57.6102C41.9019 57.528 42.0076 57.4673 42.0993 57.3959C42.2014 57.3101 42.293 57.2172 42.4093 57.1493H42.4128L76.2714 37.3818C76.7001 37.1317 77.1861 37 77.6807 37C78.1753 37 78.6613 37.1317 79.09 37.3818L112.949 57.1493H112.956C113.068 57.2208 113.164 57.3101 113.266 57.3923C113.357 57.4637 113.459 57.528 113.54 57.6066C113.639 57.7102 113.71 57.8281 113.794 57.9425C113.854 58.0282 113.935 58.1032 113.984 58.1961C114.065 58.339 114.111 58.4891 114.168 58.6391C114.196 58.7213 114.245 58.7963 114.266 58.8821C114.331 59.1255 114.364 59.3766 114.365 59.6288V133.079L142.579 116.606V79.0569C142.579 78.8068 142.614 78.5531 142.678 78.3138C142.703 78.228 142.748 78.153 142.777 78.0708C142.833 77.9208 142.882 77.7672 142.96 77.6278C143.013 77.5349 143.09 77.4599 143.15 77.3742C143.235 77.2598 143.305 77.1419 143.404 77.0419C143.485 76.9597 143.587 76.899 143.679 76.8275C143.784 76.7418 143.876 76.6489 143.989 76.581H143.993L177.855 56.8135C178.283 56.563 178.769 56.4311 179.264 56.4311C179.759 56.4311 180.245 56.563 180.673 56.8135L214.532 76.581C214.652 76.6525 214.743 76.7418 214.849 76.824C214.937 76.8954 215.039 76.9597 215.12 77.0383C215.219 77.1419 215.289 77.2598 215.374 77.3742C215.437 77.4599 215.515 77.5349 215.564 77.6278C215.645 77.7672 215.691 77.9208 215.747 78.0708C215.779 78.153 215.825 78.228 215.846 78.3138H215.846ZM210.3 116.606V84.0086L198.451 90.9253L182.082 100.482V133.079L210.303 116.606H210.3ZM176.441 175.572V142.954L160.34 152.279L114.361 178.888V211.813L176.441 175.572ZM46.6443 64.5769V175.572L108.717 211.81V178.891L76.289 160.281L76.2784 160.274L76.2643 160.267C76.1551 160.203 76.0635 160.11 75.9613 160.031C75.8732 159.96 75.7711 159.903 75.6936 159.824L75.6866 159.814C75.595 159.724 75.5315 159.614 75.454 159.513C75.3835 159.417 75.299 159.335 75.2426 159.235L75.2386 159.224C75.1752 159.117 75.1364 158.988 75.0906 158.867C75.0448 158.76 74.9849 158.66 74.9568 158.545V158.541C74.9216 158.406 74.9145 158.263 74.9004 158.123C74.8863 158.016 74.8581 157.909 74.8581 157.802V157.795V81.0505L58.493 71.49L46.6443 64.5805V64.5769ZM77.6842 43.1624L49.4735 59.6288L77.6772 76.0951L105.884 59.6252L77.6772 43.1624H77.6842ZM92.3551 145.926L108.721 136.373V64.5769L96.8719 71.4936L80.5029 81.0504V152.847L92.3551 145.926ZM179.264 62.5941L151.056 79.0605L179.264 95.5268L207.467 79.0569L179.264 62.5941ZM176.441 100.482L160.072 90.9253L148.224 84.0086V116.606L164.589 126.159L176.441 133.079V100.482ZM111.536 173.94L152.909 149.988L173.591 138.02L145.405 121.564L112.952 140.51L83.3743 157.777L111.536 173.94Z" clip-rule="evenodd"/></svg>

<svg xmlns="http://www.w3.org/2000/svg" width="256" height="256" viewBox="0 0 256 256"><g fill="none"><rect width="256" height="256" fill="#242938" rx="60"/><path fill="#FF2D20" fill-rule="evenodd" d="M215.846 78.314c.064.243.098.494.098.747v39.199c0 .503-.131.997-.379 1.432a2.838 2.838 0 0 1-1.037 1.047l-32.446 18.942v37.545a2.873 2.873 0 0 1-1.409 2.48l-67.728 39.535c-.155.089-.324.146-.493.207c-.064.022-.123.061-.19.079a2.81 2.81 0 0 1-1.445 0c-.077-.022-.148-.065-.222-.093c-.155-.057-.317-.107-.465-.193l-67.714-39.535a2.848 2.848 0 0 1-1.036-1.047a2.893 2.893 0 0 1-.38-1.433V59.629c0-.258.035-.508.099-.75c.02-.083.07-.158.098-.24c.053-.15.102-.303.18-.443c.053-.093.13-.168.194-.253c.08-.115.155-.233.25-.333c.08-.082.187-.143.278-.214c.102-.086.194-.179.31-.247h.004L76.27 37.382a2.796 2.796 0 0 1 2.819 0l33.859 19.767h.007c.112.072.208.161.31.243c.091.072.193.136.274.215c.099.103.17.221.254.336c.06.085.141.16.19.253c.081.143.127.293.184.443c.028.082.077.157.098.243c.065.244.098.495.099.747v73.45l28.214-16.473v-37.55c0-.25.035-.503.099-.742c.025-.086.07-.161.099-.243c.056-.15.105-.304.183-.443c.053-.093.13-.168.19-.254c.085-.114.155-.232.254-.332c.081-.082.183-.143.275-.215c.105-.085.197-.178.31-.246h.004l33.862-19.768a2.789 2.789 0 0 1 2.818 0l33.859 19.768c.12.072.211.16.317.243c.088.071.19.136.271.214c.099.104.169.222.254.336c.063.086.141.16.19.254c.081.14.127.293.183.443c.032.082.078.157.099.243m-5.546 38.292V84.009l-11.849 6.916l-16.369 9.557v32.597l28.221-16.473zm-33.859 58.966v-32.618l-16.101 9.325l-45.979 26.609v32.925zM46.644 64.577v110.995l62.073 36.238v-32.919l-32.428-18.61l-.01-.007l-.015-.007c-.109-.064-.2-.157-.303-.236c-.088-.071-.19-.128-.267-.207l-.007-.01c-.092-.09-.156-.2-.233-.301c-.07-.096-.155-.178-.211-.278l-.004-.011c-.064-.107-.103-.236-.148-.357c-.046-.107-.106-.207-.134-.322v-.004c-.035-.135-.042-.278-.057-.418c-.014-.107-.042-.214-.042-.321V81.051L58.493 71.49l-11.849-6.91zm31.04-21.415L49.474 59.63l28.203 16.466l28.207-16.47l-28.207-16.463zm14.671 102.764l16.366-9.553V64.577l-11.85 6.917l-16.368 9.556v71.797zm86.909-83.332l-28.208 16.467l28.208 16.466l28.203-16.47zm-2.823 37.888l-16.369-9.557l-11.848-6.916v32.597l16.365 9.553l11.852 6.92zm-64.905 73.458l41.373-23.952l20.682-11.968l-28.186-16.456l-32.453 18.946l-29.578 17.267z" clip-rule="evenodd"/></g></svg>
